X: 120326
T: Low Road to Glin
C: M.Mulvihill
Z: B.Black
R: reel
M: 4/4
L: 1/8
K: Edor
A |: B2 Ad BE E2 | B2 Ad Bded | (3Bcd Ad BE E2 |\
FDAG FD D2 |
B2 Ad BE E2 | B2 Ad Bded | fded BABc | dBAd BE E2 :|
e2 Be geBe | edef gfec | d2 Ad fd (3ded | BABc dAFA |
e2 Be geBe | edef gfga | bgaf gfed | (3Bcd ef ge e2 :|
